X: 30990
T: Pa Paddy O'Sullivan's
R: polka
M: 2/4
K: Gmajor
|:G/A/|B>c BA|Bd eg|dd/e/ dG|BA AG/A/|
B>c BA|B/c/d eg|d>e dB|AG G:|
|:d|g2 a/g/f|ed eg|dd/e/ dG|BA A2|
g>a gf|ed d/e/f/g/|d>e dB|AG G:|

